X:1
T:Title
%%score { ( 1 3 5 ) | ( 2 4 ) }
L:1/8
M:4/4
K:Bb
V:1 treble nm="Grand Piano"
V:3 treble 
V:5 treble 
V:2 bass 
V:4 bass 
V:1
 z4 z2[Q:1/4=100] [DF]2 | [DF]2 [B,D]>[CE] [DF]2 [Fd]>[Ec] | [DB]2 z2 z4 | %3
 G2 G>[FA] [FB]2 [EA]>[DB] | [Fc]6 [EF]2 | [DF]2 [B,D]>[CE] [DF]2 [Fd]>[Ec] | [DB]2 z2 z4 | %7
 [FA]2 [GB]>[FA] [=EG]2 [Ec]>[Ec] |[M:3/4] F6 |[M:1/4] F>F |[M:4/4] z4 c2 z2 | %11
 [B,DF]2 [B,FB]>c d2 [FB]>[FA] | [EG]>[EG] [FB]2 [Fe]>[Fe] [Fd]2 | c6[K:bass] z2[K:treble] | %14
 [B,DF]2[K:bass] [F,B,D]>[F,CE][K:treble] [DF]2 [DB]>[FB] | z4 z2 .d2 | BB B2 B2 A>A | %17
[M:3/4] [DB]6 |] %18
V:2
 z4 z2 [B,,B,]2 | [B,,B,]2 [B,,F,]>[B,,F,] [B,,B,]2 [B,,B,]>[B,,B,] | %2
 .[B,,B,]2 [B,,G,]>[B,,A,] [B,,B,]2 [D,B,]2 | [E,B,E]2 [E,B,E]>[E,C] [D,B,]2 [C,F,]>[B,,B,] | %4
 [F,A,]6 [F,A,]2 | [B,,B,]2 [B,,F,]>[B,,F,] [B,,B,]2 [B,,B,]>[B,,B,] | %6
 .[B,,B,]2 [B,,G,]>B,, B,,2 B,,2 | [C,C]2 [C,C]>[C,C] [C,B,]2 [C,B,]>[C,B,] |[M:3/4] [F,A,]6 | %9
[M:1/4] [F,A,]>[F,A,] |[M:4/4] z4 F2 z2 | B,,2 D,>[K:treble][F,A,F] [B,F]2[K:bass] [D,B,]>[D,B,] | %12
 [E,B,]>[E,B,] [D,B,]2 [C,A,]>[C,A,] B,,D, | [A,F]6 z C, | B,,2 B,,>B,, [B,,B,]2 [B,,B,]>[D,B,] | %15
 [E,B,]2 [D,=B,]>[D,B,] [C,C]2 [D,B,][E,C] | [F,DF][F,DF] [F,_D=E]2 [F,C_E]2 [F,CE]>[F,E] | %17
[M:3/4] [B,,F,]6 |] %18
V:3
 x8 | x8 | z F, [EA]>[EG] [DF]2 F2 | x8 | x8 | x8 | z F, [EA]>[A,EG] [B,DF]2 [DFG]2 | x8 | %8
[M:3/4] x6 |[M:1/4] x2 |[M:4/4] F2 A>B z C [B,F]>[A,EF] | x8 | x8 | %13
 z[K:bass] =E, z G, F,2 [F,A,EF]>[K:treble][A,EF] | x2[K:bass] x2[K:treble] x4 | %15
 [Gc]2 [Gd]>[Gd] [Ge]2 G-[Gc] | x8 |[M:3/4] x6 |] %18
V:4
 x8 | x8 | x8 | x8 | x8 | x8 | x8 | x8 |[M:3/4] x6 |[M:1/4] x2 | %10
[M:4/4] [F,A,]2 [F,CF]>[F,DF] [F,E]E, D,>C, | x7/2[K:treble] x5/2[K:bass] x2 | x8 | %13
 F,2 z2 z E, .D,>F, | x8 | x8 | x8 |[M:3/4] x6 |] %18
V:5
 x8 | x8 | x8 | x8 | x8 | x8 | x8 | x8 |[M:3/4] x6 |[M:1/4] x2 |[M:4/4] x8 | x8 | x8 | %13
 z2[K:bass] F,2 z4[K:treble] | x2[K:bass] x2[K:treble] x4 | x8 | x8 |[M:3/4] x6 |] %18

